tipitek/img/app-card-icon-4.svg

<svg width="56" height="56" viewBox="0 0 56 56" fill="none" xmlns="http://www.w3.org/2000/svg">
<g clip-path="url(#clip0_971_4179)">
<path d="M43.6537 29.75C42.98 35.84 38.8412 40.88 33.25 42.8575C31.605 43.435 29.8375 43.75 28 43.75C19.8975 43.75 13.2212 37.625 12.3462 29.75C12.285 29.1725 12.25 28.595 12.25 28C12.25 27.405 12.285 26.8275 12.3462 26.25C13.2212 18.375 19.8975 12.25 28 12.25C32.13 12.25 35.8838 13.8338 38.6925 16.4413C40.2895 17.913 41.5636 19.7003 42.4342 21.6899C43.3047 23.6796 43.7528 25.8282 43.75 28C43.75 28.595 43.715 29.1725 43.6537 29.75Z" fill="#FCD770"/>
<path d="M28 15.75C34.7638 15.75 40.25 21.2362 40.25 28C40.25 34.7638 34.7638 40.25 28 40.25C21.2362 40.25 15.75 34.7638 15.75 28C15.75 21.2362 21.2362 15.75 28 15.75Z" fill="#FFEAA7"/>
<path d="M14 38.5V52.5C14 53.4625 13.2125 54.25 12.25 54.25H3.5C2.5375 54.25 1.75 53.4625 1.75 52.5V38.5C1.75 37.5375 2.5375 36.75 3.5 36.75H12.25C13.2125 36.75 14 37.5375 14 38.5ZM54.25 38.5V40.25H42V38.5C42 37.5375 42.7875 36.75 43.75 36.75H52.5C53.4625 36.75 54.25 37.5375 54.25 38.5ZM54.25 50.75V52.5C54.25 53.4625 53.4625 54.25 52.5 54.25H43.75C42.7875 54.25 42 53.4625 42 52.5V50.75H54.25ZM53.9875 14.525C54.1344 14.7198 54.2241 14.9518 54.2463 15.1948C54.2685 15.4378 54.2225 15.6822 54.1134 15.9004C54.0043 16.1187 53.8364 16.3022 53.6286 16.4302C53.4209 16.5582 53.1815 16.6257 52.9375 16.625H39.8125L38.885 16.24C38.6488 16.0037 38.5 15.68 38.5 15.3125C38.5 15.0325 38.5962 14.7525 38.7625 14.525L40.4688 12.25H52.2812L53.9875 14.525Z" fill="#969FAA"/>
<path d="M52.5 3.5V12.25H40.25V3.5C40.25 2.5375 41.0375 1.75 42 1.75H50.75C51.7125 1.75 52.5 2.5375 52.5 3.5Z" fill="#CCD1D9"/>
<path d="M12.8547 16.415C12.8869 16.5439 12.8893 16.6784 12.8616 16.8083C12.834 16.9383 12.7771 17.0602 12.6953 17.1648C12.6134 17.2694 12.5088 17.354 12.3893 17.4121C12.2699 17.4702 12.1387 17.5002 12.0059 17.5H5.49591C5.36307 17.5002 5.23194 17.4702 5.11248 17.4121C4.99302 17.354 4.88838 17.2694 4.80654 17.1648C4.72469 17.0602 4.6678 16.9383 4.64018 16.8083C4.61256 16.6784 4.61495 16.5439 4.64716 16.415L5.25091 14H12.2509L12.8547 16.415Z" fill="#AAB2BD"/>
<path d="M15.75 10.5V12.25C15.75 13.2125 14.9625 14 14 14H3.5C2.5375 14 1.75 13.2125 1.75 12.25V10.5H15.75Z" fill="#CCD1D9"/>
<path d="M15.75 3.5V10.5H1.75V3.5C1.75 2.5375 2.5375 1.75 3.5 1.75H14C14.9625 1.75 15.75 2.5375 15.75 3.5ZM43.75 5.25H49V8.75H43.75V5.25ZM42 40.25H54.25V50.75H42V40.25ZM5.25 40.25H10.5V47.25H5.25V40.25Z" fill="#69D6F4"/>
<path d="M24.5 24.5H32.375C32.8562 24.5 33.25 24.8937 33.25 25.375V34.125C33.25 34.6062 32.8562 35 32.375 35H23.625C23.1437 35 22.75 34.6062 22.75 34.125V25.375C22.75 24.8937 23.1437 24.5 23.625 24.5H24.5Z" fill="#AAB2BD"/>
<path d="M28 30.625C28.9665 30.625 29.75 29.8415 29.75 28.875C29.75 27.9085 28.9665 27.125 28 27.125C27.0335 27.125 26.25 27.9085 26.25 28.875C26.25 29.8415 27.0335 30.625 28 30.625Z" fill="#B4DD7F"/>
<path d="M33.25 49C34.2165 49 35 48.2165 35 47.25C35 46.2835 34.2165 45.5 33.25 45.5C32.2835 45.5 31.5 46.2835 31.5 47.25C31.5 48.2165 32.2835 49 33.25 49Z" fill="#FF826E"/>
<path d="M28 54.25C28.9665 54.25 29.75 53.4665 29.75 52.5C29.75 51.5335 28.9665 50.75 28 50.75C27.0335 50.75 26.25 51.5335 26.25 52.5C26.25 53.4665 27.0335 54.25 28 54.25Z" fill="#FF826E"/>
<path d="M21 50.75C21.9665 50.75 22.75 49.9665 22.75 49C22.75 48.0335 21.9665 47.25 21 47.25C20.0335 47.25 19.25 48.0335 19.25 49C19.25 49.9665 20.0335 50.75 21 50.75Z" fill="#FF826E"/>
<path d="M33.25 10.5C34.2165 10.5 35 9.7165 35 8.75C35 7.7835 34.2165 7 33.25 7C32.2835 7 31.5 7.7835 31.5 8.75C31.5 9.7165 32.2835 10.5 33.25 10.5Z" fill="#FF826E"/>
<path d="M28 5.25C28.9665 5.25 29.75 4.4665 29.75 3.5C29.75 2.5335 28.9665 1.75 28 1.75C27.0335 1.75 26.25 2.5335 26.25 3.5C26.25 4.4665 27.0335 5.25 28 5.25Z" fill="#FF826E"/>
<path d="M21 8.75C21.9665 8.75 22.75 7.9665 22.75 7C22.75 6.0335 21.9665 5.25 21 5.25C20.0335 5.25 19.25 6.0335 19.25 7C19.25 7.9665 20.0335 8.75 21 8.75Z" fill="#FF826E"/>
<path d="M28 14.875C20.7629 14.875 14.875 20.7629 14.875 28C14.875 35.2371 20.7629 41.125 28 41.125C35.2371 41.125 41.125 35.2371 41.125 28C41.125 20.7629 35.2371 14.875 28 14.875ZM28 39.375C21.728 39.375 16.625 34.272 16.625 28C16.625 21.728 21.728 16.625 28 16.625C34.272 16.625 39.375 21.728 39.375 28C39.375 34.272 34.272 39.375 28 39.375Z" fill="black"/>
<path d="M32.375 23.625V22.75C32.375 20.3376 30.4124 18.375 28 18.375C25.5876 18.375 23.625 20.3376 23.625 22.75V23.625C22.6599 23.625 21.875 24.4099 21.875 25.375V34.125C21.875 35.0901 22.6599 35.875 23.625 35.875H32.375C33.3401 35.875 34.125 35.0901 34.125 34.125V25.375C34.125 24.4099 33.3401 23.625 32.375 23.625ZM25.375 22.75C25.375 21.3027 26.5528 20.125 28 20.125C29.4472 20.125 30.625 21.3027 30.625 22.75V23.625H25.375V22.75ZM23.625 34.125V25.375H32.375L32.3759 34.125H23.625Z" fill="black"/>
<path d="M28 26.25C26.5527 26.25 25.375 27.4277 25.375 28.875C25.375 30.0142 26.1091 30.9768 27.125 31.339V33.25H28.875V31.339C29.3853 31.1591 29.8275 30.8257 30.1408 30.3846C30.4541 29.9434 30.6233 29.4161 30.625 28.875C30.625 27.4277 29.4473 26.25 28 26.25ZM28 29.75C27.7747 29.7399 27.562 29.6433 27.4061 29.4803C27.2503 29.3174 27.1633 29.1005 27.1633 28.875C27.1633 28.6495 27.2503 28.4326 27.4061 28.2697C27.562 28.1067 27.7747 28.0101 28 28C28.2253 28.0101 28.438 28.1067 28.5939 28.2697C28.7497 28.4326 28.8367 28.6495 28.8367 28.875C28.8367 29.1005 28.7497 29.3174 28.5939 29.4803C28.438 29.6433 28.2253 29.7399 28 29.75ZM42.875 9.625H49.875V4.375H42.875V9.625ZM44.625 6.125H48.125V7.875H44.625V6.125ZM4.375 48.125H11.375V39.375H4.375V48.125ZM6.125 41.125H9.625V46.375H6.125V41.125ZM6.125 49.875H9.625V51.625H6.125V49.875Z" fill="black"/>
<path d="M52.5 35.875H48.125V28.875H44.5804C44.5961 28.5836 44.625 28.2957 44.625 28C44.625 27.7043 44.5961 27.4164 44.5804 27.125H48.125V17.5H52.9375C53.3433 17.499 53.7409 17.3853 54.0859 17.1715C54.4309 16.9578 54.7097 16.6523 54.8912 16.2893C55.0727 15.9263 55.1497 15.5201 55.1138 15.1158C55.0778 14.7116 54.9302 14.3253 54.6875 14L53.375 12.25V3.5C53.375 2.05275 52.1973 0.875 50.75 0.875H42C40.5527 0.875 39.375 2.05275 39.375 3.5V12.25L38.0616 14.0009C37.9332 14.1747 37.8315 14.3667 37.7598 14.5705C36.6372 13.7504 35.416 13.0746 34.125 12.5589V11.214C34.6353 11.0341 35.0775 10.7007 35.3908 10.2596C35.7041 9.81841 35.8733 9.2911 35.875 8.75C35.875 7.30275 34.6973 6.125 33.25 6.125C31.8027 6.125 30.625 7.30275 30.625 8.75C30.625 9.88925 31.3591 10.8518 32.375 11.214V11.9787C31.2318 11.6671 30.0584 11.4797 28.875 11.4196V5.964C29.3853 5.78412 29.8275 5.45072 30.1408 5.00956C30.4541 4.56841 30.6233 4.0411 30.625 3.5C30.625 2.05275 29.4473 0.875 28 0.875C26.5527 0.875 25.375 2.05275 25.375 3.5C25.375 4.63925 26.1091 5.60175 27.125 5.964V11.4196C25.3246 11.5105 23.5512 11.8953 21.875 12.5589V9.464C22.3853 9.28412 22.8275 8.95072 23.1408 8.50956C23.4541 8.06841 23.6233 7.5411 23.625 7C23.625 5.55275 22.4473 4.375 21 4.375C19.5527 4.375 18.375 5.55275 18.375 7C18.375 8.13925 19.1091 9.10175 20.125 9.464V13.3639C17.8788 14.5787 15.9421 16.2937 14.4645 18.3764C12.9868 20.459 12.0079 22.8536 11.6034 25.375H9.625V18.375H12.0041C12.5466 18.375 13.0489 18.13 13.3831 17.7021C13.7174 17.2743 13.8338 16.7274 13.7016 16.1997L13.37 14.875H14C15.4473 14.875 16.625 13.6973 16.625 12.25V3.5C16.625 2.05275 15.4473 0.875 14 0.875H3.5C2.05275 0.875 0.875 2.05275 0.875 3.5V12.25C0.875 13.6973 2.05275 14.875 3.5 14.875H4.12912L3.7975 16.2015C3.66713 16.7283 3.78262 17.276 4.11687 17.703C4.45112 18.13 4.95338 18.375 5.49588 18.375H7.875V27.125H11.4196C11.4039 27.4164 11.375 27.7043 11.375 28C11.375 28.2957 11.4039 28.5836 11.4196 28.875H7.875V35.875H3.5C2.05275 35.875 0.875 37.0527 0.875 38.5V52.5C0.875 53.9473 2.05275 55.125 3.5 55.125H12.25C13.6973 55.125 14.875 53.9473 14.875 52.5V38.5C14.875 38.3679 14.8549 38.241 14.8356 38.1141C16.2624 39.9754 18.0645 41.5161 20.125 42.6361V46.536C19.6147 46.7159 19.1725 47.0493 18.8592 47.4904C18.5459 47.9316 18.3767 48.4589 18.375 49C18.375 50.4473 19.5527 51.625 21 51.625C22.4473 51.625 23.625 50.4473 23.625 49C23.6233 48.4589 23.4541 47.9316 23.1408 47.4904C22.8275 47.0493 22.3853 46.7159 21.875 46.536V43.4411C23.5509 44.1055 25.3245 44.4904 27.125 44.5804V50.036C26.6147 50.2159 26.1725 50.5493 25.8592 50.9904C25.5459 51.4316 25.3767 51.9589 25.375 52.5C25.375 53.9473 26.5527 55.125 28 55.125C29.4473 55.125 30.625 53.9473 30.625 52.5C30.6233 51.9589 30.4541 51.4316 30.1408 50.9904C29.8275 50.5493 29.3853 50.2159 28.875 50.036V44.5804C30.0583 44.5199 31.2317 44.3325 32.375 44.0213V44.786C31.8647 44.9659 31.4225 45.2993 31.1092 45.7404C30.7959 46.1816 30.6267 46.7089 30.625 47.25C30.625 48.6973 31.8027 49.875 33.25 49.875C34.6973 49.875 35.875 48.6973 35.875 47.25C35.8733 46.7089 35.7041 46.1816 35.3908 45.7404C35.0775 45.2993 34.6353 44.9659 34.125 44.786V43.4411C36.9072 42.3298 39.3388 40.4897 41.1644 38.1141C41.1451 38.241 41.125 38.3679 41.125 38.5V52.5C41.125 53.9473 42.3027 55.125 43.75 55.125H52.5C53.9473 55.125 55.125 53.9473 55.125 52.5V38.5C55.125 37.0527 53.9473 35.875 52.5 35.875ZM33.25 7.875C33.4233 7.87483 33.5928 7.92607 33.7369 8.02225C33.8811 8.11842 33.9935 8.25521 34.0599 8.41529C34.1263 8.57537 34.1437 8.75155 34.11 8.92154C34.0762 9.09152 33.9928 9.24767 33.8702 9.37021C33.7477 9.49276 33.5915 9.57619 33.4215 9.60996C33.2516 9.64373 33.0754 9.62631 32.9153 9.55991C32.7552 9.49351 32.6184 9.38111 32.5222 9.23694C32.4261 9.09277 32.3748 8.92331 32.375 8.75C32.375 8.26788 32.767 7.875 33.25 7.875ZM21 6.125C21.1733 6.12483 21.3428 6.17607 21.4869 6.27225C21.6311 6.36842 21.7435 6.50521 21.8099 6.66529C21.8763 6.82537 21.8937 7.00155 21.86 7.17154C21.8262 7.34152 21.7428 7.49767 21.6202 7.62021C21.4977 7.74276 21.3415 7.82619 21.1715 7.85996C21.0015 7.89373 20.8254 7.87631 20.6653 7.80991C20.5052 7.74351 20.3684 7.63111 20.2722 7.48694C20.1761 7.34277 20.1248 7.17331 20.125 7C20.125 6.51788 20.517 6.125 21 6.125ZM3.5 2.625H14C14.483 2.625 14.875 3.01787 14.875 3.5V9.625H2.625V3.5C2.625 3.01787 3.017 2.625 3.5 2.625ZM2.625 12.25V11.375H14.875V12.25C14.875 12.7321 14.483 13.125 14 13.125H3.5C3.017 13.125 2.625 12.7321 2.625 12.25ZM5.495 16.625L5.9325 14.875H11.5666L12.0033 16.625H5.495ZM21 49.875C20.7747 49.8649 20.562 49.7683 20.4061 49.6053C20.2503 49.4423 20.1633 49.2255 20.1633 49C20.1633 48.7745 20.2503 48.5577 20.4061 48.3947C20.562 48.2317 20.7747 48.1351 21 48.125C21.2253 48.1351 21.438 48.2317 21.5939 48.3947C21.7497 48.5577 21.8367 48.7745 21.8367 49C21.8367 49.2255 21.7497 49.4423 21.5939 49.6053C21.438 49.7683 21.2253 49.8649 21 49.875ZM33.25 48.125C33.0247 48.1149 32.812 48.0183 32.6561 47.8553C32.5003 47.6923 32.4133 47.4755 32.4133 47.25C32.4133 47.0245 32.5003 46.8077 32.6561 46.6447C32.812 46.4817 33.0247 46.3851 33.25 46.375C33.4753 46.3851 33.688 46.4817 33.8439 46.6447C33.9997 46.8077 34.0867 47.0245 34.0867 47.25C34.0867 47.4755 33.9997 47.6923 33.8439 47.8553C33.688 48.0183 33.4753 48.1149 33.25 48.125ZM53.375 38.5V39.375H42.875V38.5C42.875 38.0179 43.267 37.625 43.75 37.625H52.5C52.983 37.625 53.375 38.0179 53.375 38.5ZM42.875 41.125H53.375V49.875H42.875V41.125ZM46.375 25.375H44.3966C43.9396 22.4848 42.7244 19.7674 40.8748 17.5H46.375V25.375ZM41.125 3.5C41.125 3.01787 41.517 2.625 42 2.625H50.75C51.233 2.625 51.625 3.01787 51.625 3.5V11.375H41.125V3.5ZM39.4625 15.05L40.9062 13.125H51.8438L53.2866 15.0491C53.3363 15.1139 53.3667 15.1913 53.3746 15.2725C53.3824 15.3537 53.3672 15.4355 53.3309 15.5086C53.2945 15.5816 53.2383 15.6429 53.1688 15.6856C53.0992 15.7283 53.0191 15.7506 52.9375 15.75H39.8125C39.7313 15.75 39.6516 15.7274 39.5825 15.6847C39.5134 15.6419 39.4575 15.5808 39.4212 15.5082C39.3849 15.4355 39.3695 15.3541 39.3768 15.2732C39.3841 15.1923 39.4137 15.115 39.4625 15.05ZM28 2.625C28.1733 2.62483 28.3428 2.67607 28.4869 2.77225C28.6311 2.86842 28.7435 3.00521 28.8099 3.16529C28.8763 3.32537 28.8937 3.50155 28.86 3.67153C28.8262 3.84152 28.7428 3.99767 28.6202 4.12021C28.4977 4.24276 28.3415 4.32619 28.1715 4.35996C28.0016 4.39373 27.8254 4.37631 27.6653 4.30991C27.5052 4.24351 27.3684 4.13111 27.2722 3.98694C27.1761 3.84277 27.1248 3.67331 27.125 3.5C27.125 3.01787 27.517 2.625 28 2.625ZM13.125 52.5C13.125 52.9821 12.733 53.375 12.25 53.375H3.5C3.017 53.375 2.625 52.9821 2.625 52.5V38.5C2.625 38.0179 3.017 37.625 3.5 37.625H12.25C12.733 37.625 13.125 38.0179 13.125 38.5V52.5ZM12.25 35.875H9.625V30.625H11.6034C11.9174 32.6068 12.5905 34.5146 13.5896 36.2547C13.1859 36.0088 12.7227 35.8775 12.25 35.875ZM28 53.375C27.7747 53.3649 27.562 53.2683 27.4061 53.1053C27.2503 52.9423 27.1633 52.7255 27.1633 52.5C27.1633 52.2745 27.2503 52.0577 27.4061 51.8947C27.562 51.7317 27.7747 51.6351 28 51.625C28.2253 51.6351 28.438 51.7317 28.5939 51.8947C28.7497 52.0577 28.8367 52.2745 28.8367 52.5C28.8367 52.7255 28.7497 52.9423 28.5939 53.1053C28.438 53.2683 28.2253 53.3649 28 53.375ZM28 42.875C19.7978 42.875 13.125 36.2023 13.125 28C13.125 19.7978 19.7978 13.125 28 13.125C36.2023 13.125 42.875 19.7978 42.875 28C42.875 36.2023 36.2023 42.875 28 42.875ZM44.3966 30.625H46.375V35.875H43.75C43.2591 35.875 42.8041 36.0194 42.4104 36.2547C43.4098 34.5148 44.083 32.6069 44.3966 30.625ZM52.5 53.375H43.75C43.267 53.375 42.875 52.9821 42.875 52.5V51.625H53.375V52.5C53.375 52.9821 52.983 53.375 52.5 53.375Z" fill="black"/>
</g>
<defs>
<clipPath id="clip0_971_4179">
<rect width="56" height="56" fill="white"/>
</clipPath>
</defs>
</svg>

<svg width="56" height="56" fill="none" xmlns="http://www.w3.org/2000/svg"><g clip-path="url(#clip0_971_4179)"><path d="M43.654 29.75c-.674 6.09-4.813 11.13-10.404 13.108a15.823 15.823 0 0 1-5.25.892c-8.102 0-14.779-6.125-15.654-14A16.508 16.508 0 0 1 12.25 28c0-.595.035-1.172.096-1.75.875-7.875 7.552-14 15.654-14a15.65 15.65 0 0 1 10.693 4.191A15.691 15.691 0 0 1 43.75 28c0 .595-.035 1.172-.096 1.75z" fill="#FCD770"/><path d="M28 15.75c6.764 0 12.25 5.486 12.25 12.25S34.764 40.25 28 40.25 15.75 34.764 15.75 28 21.236 15.75 28 15.75z" fill="#FFEAA7"/><path d="M14 38.5v14c0 .962-.787 1.75-1.75 1.75H3.5c-.962 0-1.75-.788-1.75-1.75v-14c0-.962.788-1.75 1.75-1.75h8.75c.963 0 1.75.788 1.75 1.75zm40.25 0v1.75H42V38.5c0-.962.788-1.75 1.75-1.75h8.75c.962 0 1.75.788 1.75 1.75zm0 12.25v1.75c0 .962-.788 1.75-1.75 1.75h-8.75c-.962 0-1.75-.788-1.75-1.75v-1.75h12.25zm-.263-36.225a1.31 1.31 0 0 1-1.05 2.1H39.813l-.928-.385a1.302 1.302 0 0 1-.385-.927c0-.28.096-.56.263-.788l1.706-2.275H52.28l1.706 2.275z" fill="#969FAA"/><path d="M52.5 3.5v8.75H40.25V3.5c0-.962.788-1.75 1.75-1.75h8.75c.962 0 1.75.788 1.75 1.75z" fill="#CCD1D9"/><path d="M12.855 16.415a.872.872 0 0 1-.85 1.085h-6.51a.874.874 0 0 1-.848-1.085L5.251 14h7l.604 2.415z" fill="#AAB2BD"/><path d="M15.75 10.5v1.75c0 .963-.787 1.75-1.75 1.75H3.5c-.962 0-1.75-.787-1.75-1.75V10.5h14z" fill="#CCD1D9"/><path d="M15.75 3.5v7h-14v-7c0-.962.788-1.75 1.75-1.75H14c.963 0 1.75.788 1.75 1.75zm28 1.75H49v3.5h-5.25v-3.5zm-1.75 35h12.25v10.5H42v-10.5zm-36.75 0h5.25v7H5.25v-7z" fill="#69D6F4"/><path d="M24.5 24.5h7.875c.481 0 .875.394.875.875v8.75a.878.878 0 0 1-.875.875h-8.75a.878.878 0 0 1-.875-.875v-8.75c0-.481.394-.875.875-.875h.875z" fill="#AAB2BD"/><path d="M28 30.625a1.75 1.75 0 1 0 0-3.5 1.75 1.75 0 0 0 0 3.5z" fill="#B4DD7F"/><path d="M33.25 49a1.75 1.75 0 1 0 0-3.5 1.75 1.75 0 0 0 0 3.5zM28 54.25a1.75 1.75 0 1 0 0-3.5 1.75 1.75 0 0 0 0 3.5zM21 50.75a1.75 1.75 0 1 0 0-3.5 1.75 1.75 0 0 0 0 3.5zM33.25 10.5a1.75 1.75 0 1 0 0-3.5 1.75 1.75 0 0 0 0 3.5zM28 5.25a1.75 1.75 0 1 0 0-3.5 1.75 1.75 0 0 0 0 3.5zM21 8.75a1.75 1.75 0 1 0 0-3.5 1.75 1.75 0 0 0 0 3.5z" fill="#FF826E"/><path d="M28 14.875c-7.237 0-13.125 5.888-13.125 13.125S20.763 41.125 28 41.125 41.125 35.237 41.125 28 35.237 14.875 28 14.875zm0 24.5c-6.272 0-11.375-5.103-11.375-11.375S21.728 16.625 28 16.625 39.375 21.728 39.375 28 34.272 39.375 28 39.375z" fill="#000"/><path d="M32.375 23.625v-.875A4.38 4.38 0 0 0 28 18.375a4.38 4.38 0 0 0-4.375 4.375v.875c-.965 0-1.75.785-1.75 1.75v8.75c0 .965.785 1.75 1.75 1.75h8.75c.965 0 1.75-.785 1.75-1.75v-8.75c0-.965-.785-1.75-1.75-1.75zm-7-.875A2.628 2.628 0 0 1 28 20.125a2.628 2.628 0 0 1 2.625 2.625v.875h-5.25v-.875zm-1.75 11.375v-8.75h8.75v8.75h-8.75z" fill="#000"/><path d="M28 26.25a2.628 2.628 0 0 0-2.625 2.625c0 1.14.734 2.102 1.75 2.464v1.911h1.75v-1.911a2.622 2.622 0 0 0 1.75-2.464A2.628 2.628 0 0 0 28 26.25zm0 3.5A.876.876 0 0 1 28 28a.876.876 0 0 1 0 1.75zM42.875 9.625h7v-5.25h-7v5.25zm1.75-3.5h3.5v1.75h-3.5v-1.75zm-40.25 42h7v-8.75h-7v8.75zm1.75-7h3.5v5.25h-3.5v-5.25zm0 8.75h3.5v1.75h-3.5v-1.75z" fill="#000"/><path d="M52.5 35.875h-4.375v-7H44.58c.016-.291.045-.58.045-.875 0-.296-.029-.584-.045-.875h3.545V17.5h4.813a2.19 2.19 0 0 0 1.75-3.5l-1.313-1.75V3.5A2.628 2.628 0 0 0 50.75.875H42A2.628 2.628 0 0 0 39.375 3.5v8.75L38.062 14c-.129.175-.23.367-.302.57a16.602 16.602 0 0 0-3.635-2.011v-1.345a2.622 2.622 0 0 0 1.75-2.464 2.628 2.628 0 0 0-2.625-2.625 2.628 2.628 0 0 0-2.625 2.625c0 1.14.734 2.102 1.75 2.464v.765a16.49 16.49 0 0 0-3.5-.56V5.965a2.621 2.621 0 0 0 1.75-2.464A2.628 2.628 0 0 0 28 .875 2.628 2.628 0 0 0 25.375 3.5c0 1.14.734 2.102 1.75 2.464v5.456c-1.8.09-3.574.475-5.25 1.139V9.464A2.621 2.621 0 0 0 23.625 7 2.628 2.628 0 0 0 21 4.375 2.628 2.628 0 0 0 18.375 7c0 1.14.734 2.102 1.75 2.464v3.9a16.654 16.654 0 0 0-8.522 12.011H9.625v-7h2.38c.542 0 1.044-.245 1.378-.673.334-.428.45-.975.319-1.502l-.332-1.325H14a2.628 2.628 0 0 0 2.625-2.625V3.5A2.628 2.628 0 0 0 14 .875H3.5A2.628 2.628 0 0 0 .875 3.5v8.75A2.628 2.628 0 0 0 3.5 14.875h.63l-.333 1.326a1.742 1.742 0 0 0 .32 1.502 1.74 1.74 0 0 0 1.379.672h2.379v8.75h3.545c-.016.291-.045.58-.045.875 0 .296.029.584.045.875H7.875v7H3.5A2.628 2.628 0 0 0 .875 38.5v14A2.628 2.628 0 0 0 3.5 55.125h8.75a2.628 2.628 0 0 0 2.625-2.625v-14c0-.132-.02-.259-.04-.386a16.735 16.735 0 0 0 5.29 4.522v3.9A2.622 2.622 0 0 0 18.375 49 2.628 2.628 0 0 0 21 51.625 2.628 2.628 0 0 0 23.625 49a2.622 2.622 0 0 0-1.75-2.464v-3.095c1.676.664 3.45 1.05 5.25 1.14v5.455a2.622 2.622 0 0 0-1.75 2.464A2.628 2.628 0 0 0 28 55.125a2.628 2.628 0 0 0 2.625-2.625 2.622 2.622 0 0 0-1.75-2.464V44.58a16.542 16.542 0 0 0 3.5-.559v.765a2.622 2.622 0 0 0-1.75 2.464 2.628 2.628 0 0 0 2.625 2.625 2.628 2.628 0 0 0 2.625-2.625 2.622 2.622 0 0 0-1.75-2.464v-1.345a16.682 16.682 0 0 0 7.04-5.327c-.02.127-.04.254-.04.386v14a2.628 2.628 0 0 0 2.625 2.625h8.75a2.628 2.628 0 0 0 2.625-2.625v-14a2.628 2.628 0 0 0-2.625-2.625zm-19.25-28a.876.876 0 1 1 .002 1.751.876.876 0 0 1-.002-1.751zM21 6.125a.876.876 0 1 1 .002 1.751A.876.876 0 0 1 21 6.125zm-17.5-3.5H14c.483 0 .875.393.875.875v6.125H2.625V3.5c0-.482.392-.875.875-.875zm-.875 9.625v-.875h12.25v.875a.876.876 0 0 1-.875.875H3.5a.876.876 0 0 1-.875-.875zm2.87 4.375l.438-1.75h5.634l.436 1.75H5.495zM21 49.875a.876.876 0 0 1 0-1.75.876.876 0 0 1 0 1.75zm12.25-1.75a.876.876 0 0 1 0-1.75.876.876 0 0 1 0 1.75zM53.375 38.5v.875h-10.5V38.5c0-.482.392-.875.875-.875h8.75c.483 0 .875.393.875.875zm-10.5 2.625h10.5v8.75h-10.5v-8.75zm3.5-15.75h-1.978a16.547 16.547 0 0 0-3.522-7.875h5.5v7.875zM41.125 3.5c0-.482.392-.875.875-.875h8.75c.483 0 .875.393.875.875v7.875h-10.5V3.5zm-1.663 11.55l1.444-1.925h10.938l1.443 1.924a.436.436 0 0 1-.35.701H39.813a.438.438 0 0 1-.35-.7zM28 2.625a.876.876 0 1 1 .002 1.751A.876.876 0 0 1 28 2.625zM13.125 52.5a.876.876 0 0 1-.875.875H3.5a.876.876 0 0 1-.875-.875v-14c0-.482.392-.875.875-.875h8.75c.483 0 .875.393.875.875v14zm-.875-16.625H9.625v-5.25h1.978c.314 1.982.988 3.89 1.987 5.63a2.602 2.602 0 0 0-1.34-.38zM28 53.375a.876.876 0 0 1 0-1.75.876.876 0 0 1 0 1.75zm0-10.5c-8.202 0-14.875-6.673-14.875-14.875S19.798 13.125 28 13.125 42.875 19.798 42.875 28 36.202 42.875 28 42.875zm16.397-12.25h1.978v5.25H43.75c-.49 0-.946.144-1.34.38 1-1.74 1.673-3.648 1.987-5.63zm8.103 22.75h-8.75a.876.876 0 0 1-.875-.875v-.875h10.5v.875a.876.876 0 0 1-.875.875z" fill="#000"/></g><defs><clipPath id="clip0_971_4179"><path fill="#fff" d="M0 0h56v56H0z"/></clipPath></defs></svg>
